icons/cloud-24.svg

<svg width="24" height="24" viewBox="0 0 24 24" fill="none" xmlns="http://www.w3.org/2000/svg">
<rect width="24" height="24" fill="white"/>
<path fill-rule="evenodd" clip-rule="evenodd" d="M10.8362 4C7.38106 4 4.60345 6.74704 4.60345 10.1071C4.60345 10.1165 4.60347 10.1258 4.60351 10.1351C4.73988 10.1245 4.87787 10.119 5.01724 10.119C6.1007 10.119 7.10307 10.4464 7.92332 11.0143C8.26387 11.2501 8.3488 11.7173 8.11301 12.0579C7.87722 12.3984 7.41 12.4834 7.06945 12.2476C6.49941 11.8529 5.79477 11.619 5.01724 11.619C3.06183 11.619 1.5 13.1722 1.5 15.0595C1.5 16.9469 3.06183 18.5 5.01724 18.5H17.431C20.2434 18.5 22.5 16.2646 22.5 13.5357C22.5 11.1401 20.7611 9.12491 18.4337 8.66832C18.5225 9.13347 18.569 9.61437 18.569 10.1071C18.569 10.6876 18.5042 11.2532 18.3809 11.7968C18.2893 12.2008 17.8876 12.454 17.4836 12.3624C17.0797 12.2708 16.8265 11.869 16.9181 11.4651C17.0167 11.03 17.069 10.5758 17.069 10.1071C17.069 6.74704 14.2914 4 10.8362 4ZM17.9475 7.09067C21.3485 7.34524 24 10.0955 24 13.5357C24 17.1482 21.0762 20 17.431 20H5.01724C2.229 20 0 17.8305 0 15.0595C0 12.96 1.27961 11.2058 3.11254 10.4789C3.1065 10.3557 3.10345 10.2317 3.10345 10.1071C3.10345 5.86349 6.5483 2.5 10.8362 2.5C14.0374 2.5 16.7687 4.37466 17.9475 7.09067Z" fill="#24292F"/>
</svg>

<svg xmlns="http://www.w3.org/2000/svg" width="24" height="24" viewBox="0 0 24 24"><path d="M0 0h24v24H0z"/><path fill-rule="evenodd" d="M10.836 4c-3.455 0-6.233 2.747-6.233 6.107v.028c.137-.01.275-.016.414-.016a5.08 5.08 0 012.906.895.75.75 0 01-.854 1.234 3.584 3.584 0 00-2.052-.629c-1.955 0-3.517 1.553-3.517 3.44 0 1.888 1.562 3.441 3.517 3.441h12.414c2.812 0 5.069-2.235 5.069-4.964 0-2.396-1.739-4.411-4.066-4.868a7.667 7.667 0 01-.053 3.129.75.75 0 11-1.463-.332c.099-.435.151-.89.151-1.358 0-3.36-2.778-6.107-6.233-6.107zm7.112 3.09c3.4.255 6.052 3.005 6.052 6.446C24 17.148 21.076 20 17.431 20H5.017C2.23 20 0 17.83 0 15.06c0-2.1 1.28-3.854 3.113-4.581a7.594 7.594 0 01-.01-.372c0-4.244 3.445-7.607 7.733-7.607 3.201 0 5.933 1.875 7.112 4.59z"/></svg>
